src/assets/icons/muscles_parts/buttocks.svg

<svg id="Layer_2" enable-background="new 0 0 512 512" viewBox="0 0 512 512" xmlns="http://www.w3.org/2000/svg"><g><g><path d="m377.637 10.998h-.005-243.259c-2.145 0-4.2.861-5.704 2.39s-2.331 3.598-2.295 5.743l1.428 85.668c-2.813 5.314-10.695 21.029-18.735 44.541-9.029 26.405-19.953 68.092-20.726 116.742-1.026 64.644 11.911 139.871 19.641 184.818 3.298 19.178 5.903 34.325 5.903 39.679 0 4.407 3.564 7.984 7.971 8l89.552.323h.029c2.846 0 5.478-1.512 6.911-3.971 14.403-24.71 25.815-61.877 33.918-110.468 1.344-8.061 2.592-16.452 3.735-25.084 1.143 8.633 2.391 17.023 3.735 25.084 8.103 48.591 19.515 85.758 33.918 110.468 1.434 2.459 4.066 3.971 6.911 3.971h.029l89.552-.323c4.407-.016 7.971-3.593 7.971-8 0-5.354 2.605-20.502 5.903-39.679 3.84-22.33 9.1-52.913 13.147-85.223 4.822-38.493 6.946-71.07 6.493-99.595-.772-48.65-11.697-90.337-20.726-116.742-8.04-23.512-15.922-39.227-18.735-44.541l1.424-85.463c.005-.112.007-.225.007-.338.005-4.419-3.575-8-7.993-8z" fill="#484f69"/></g><path d="m156.33 66.418c20.473-.514 66.819 3.535 94.291 46.718v87.635s-24.656 48.627-71.86 28.855c-39.569-16.574-35.763-119.51-33.497-152.373.415-6.017 5.211-10.688 11.066-10.835z" fill="#FF4858"/><g><path d="m215.226 243.813c6.696-2.688 15.225-6.397 21.764-10.207 2.976-1.734 6.643.683 6.204 4.099l-11.707 129.436c-.353 3.903-6.035 3.957-6.462.062-3.625-33.044-9.841-82.168-17.163-108.564-1.69-6.093 1.497-12.471 7.364-14.826z" fill="#9fabce"/></g><g><path d="m195.683 253.04 25.288 138.893c2.229 12.245.922 24.872-3.768 36.4l-21.542 52.947c-2.35 5.776-10.82 4.788-11.77-1.375-6.681-43.335-19.448-144.075-8.933-226.351.844-6.605 7.586-10.736 13.871-8.536 3.561 1.246 6.179 4.309 6.854 8.022z" fill="#9fabce"/></g><g><path d="m166.453 238.417c1.265 1.529 1.869 3.495 1.678 5.47-1.693 17.489-9.914 105.101-9.116 149.006.561 30.837-10.543 61.674-18.827 80.256-2.574 5.773-11.072 4.708-12.149-1.52-4.886-28.234-13.236-79.986-12.604-100.526.71-23.064 27.467-100.204 38.252-130.44 1.943-5.448 9.077-6.702 12.766-2.246z" fill="#9fabce"/></g><g><path d="m127.219 163.333c1.149-2.664 4.977-2.503 5.87.257 5.248 16.233 16.862 53.502 16.163 63.338-.731 10.287-25.81 72.296-35.576 103.532-.968 3.097-5.488 2.633-5.8-.597-3.127-32.371-6.483-106.624 19.343-166.53z" fill="#9fabce"/></g><path d="m353.788 66.418c-20.473-.514-66.819 3.535-94.291 46.718v87.635s24.656 48.627 71.86 28.855c39.569-16.574 35.763-119.51 33.497-152.373-.415-6.017-5.211-10.688-11.066-10.835z" fill="#FF4858"/><g><path d="m294.892 243.813c-6.696-2.688-15.225-6.397-21.764-10.207-2.976-1.734-6.643.683-6.204 4.099l11.707 129.436c.353 3.903 6.035 3.957 6.462.062 3.625-33.044 9.841-82.168 17.163-108.564 1.69-6.093-1.496-12.471-7.364-14.826z" fill="#9fabce"/></g><g><path d="m314.435 253.04-25.288 138.893c-2.229 12.245-.922 24.872 3.768 36.4l21.542 52.947c2.35 5.776 10.82 4.788 11.77-1.375 6.681-43.335 19.448-144.075 8.933-226.351-.844-6.605-7.586-10.736-13.871-8.536-3.561 1.246-6.178 4.309-6.854 8.022z" fill="#9fabce"/></g><g><path d="m343.665 238.417c-1.265 1.529-1.869 3.495-1.678 5.47 1.693 17.489 9.914 105.101 9.116 149.006-.561 30.837 10.543 61.674 18.827 80.256 2.574 5.773 11.072 4.708 12.149-1.52 4.886-28.234 13.236-79.986 12.604-100.526-.71-23.064-27.467-100.204-38.252-130.44-1.943-5.448-9.077-6.702-12.766-2.246z" fill="#9fabce"/></g><g><path d="m382.899 163.333c-1.149-2.664-4.977-2.503-5.87.257-5.248 16.233-16.862 53.502-16.163 63.338.731 10.287 25.81 72.296 35.576 103.532.968 3.097 5.488 2.633 5.8-.597 3.127-32.371 6.483-106.624-19.343-166.53z" fill="#9fabce"/></g><g><g><path d="m172.562 46.926c.374 6.505 5.603 11.583 11.927 11.583 14.415 0 28.378 5.184 39.481 14.659l18.348 15.657c3.305 2.82 8.303.398 8.303-4.024v-54.054h-78.989z" fill="#9fabce"/></g><g><path d="m140.993 38.82 1.914 13.527c.527 3.724 3.864 6.392 7.613 6.087l11.097-.904c3.504-.286 6.836-3.098 6.513-6.599-.622-6.736-1.385-13.518-2.233-20.185h-25.684c.152 2.698.401 5.392.78 8.074z" fill="#9fabce"/></g><g><path d="m259.497 84.802c0 4.422 4.998 6.844 8.303 4.024l18.348-15.657c11.102-9.474 25.066-14.659 39.481-14.659 6.324 0 11.552-5.078 11.927-11.583l.93-16.179h-78.989z" fill="#9fabce"/></g><g><path d="m341.989 50.932c-.323 3.501 3.009 6.313 6.513 6.599l11.097.904c3.749.305 7.086-2.363 7.613-6.087l1.914-13.527c.379-2.683.628-5.376.781-8.073h-25.685c-.848 6.666-1.611 13.447-2.233 20.184z" fill="#9fabce"/></g></g></g></svg>

<svg  viewBox="0 0 512 512" fill="none" xmlns="http://www.w3.org/2000/svg">
<path d="M377.637 10.998H377.632H134.373C132.228 10.998 130.173 11.859 128.669 13.388C127.165 14.917 126.338 16.986 126.374 19.131L127.802 104.799C124.989 110.113 117.107 125.828 109.067 149.34C100.038 175.745 89.114 217.432 88.341 266.082C87.315 330.726 100.252 405.953 107.982 450.9C111.28 470.078 113.885 485.225 113.885 490.579C113.885 494.986 117.449 498.563 121.856 498.579L211.408 498.902H211.437C214.283 498.902 216.915 497.39 218.348 494.931C232.751 470.221 244.163 433.054 252.266 384.463C253.61 376.402 254.858 368.011 256.001 359.379C257.144 368.012 258.392 376.402 259.736 384.463C267.839 433.054 279.251 470.221 293.654 494.931C295.088 497.39 297.72 498.902 300.565 498.902H300.594L390.146 498.579C394.553 498.563 398.117 494.986 398.117 490.579C398.117 485.225 400.722 470.077 404.02 450.9C407.86 428.57 413.12 397.987 417.167 365.677C421.989 327.184 424.113 294.607 423.66 266.082C422.888 217.432 411.963 175.745 402.934 149.34C394.894 125.828 387.012 110.113 384.199 104.799L385.623 19.336C385.628 19.224 385.63 19.111 385.63 18.998C385.635 14.579 382.055 10.998 377.637 10.998Z" fill="#484F69"/>
<path d="M156.33 66.418C176.803 65.904 223.149 69.9531 250.621 113.136V200.771C250.621 200.771 225.965 249.398 178.761 229.626C139.192 213.052 142.998 110.116 145.264 77.253C145.679 71.236 150.475 66.565 156.33 66.418Z" fill="#FF4858"/>
<path d="M215.226 243.813C221.922 241.125 230.451 237.416 236.99 233.606C239.966 231.872 243.633 234.289 243.194 237.705L231.487 367.141C231.134 371.044 225.452 371.098 225.025 367.203C221.4 334.159 215.184 285.035 207.862 258.639C206.172 252.546 209.359 246.168 215.226 243.813Z" fill="#9FABCE"/>
<path d="M195.683 253.04L220.971 391.933C223.2 404.178 221.893 416.805 217.203 428.333L195.661 481.28C193.311 487.056 184.841 486.068 183.891 479.905C177.21 436.57 164.443 335.83 174.958 253.554C175.802 246.949 182.544 242.818 188.829 245.018C192.39 246.264 195.008 249.327 195.683 253.04Z" fill="#9FABCE"/>
<path d="M166.453 238.417C167.718 239.946 168.322 241.912 168.131 243.887C166.438 261.376 158.217 348.988 159.015 392.893C159.576 423.73 148.472 454.567 140.188 473.149C137.614 478.922 129.116 477.857 128.039 471.629C123.153 443.395 114.803 391.643 115.435 371.103C116.145 348.039 142.902 270.899 153.687 240.663C155.63 235.215 162.764 233.961 166.453 238.417Z" fill="#9FABCE"/>
<path d="M127.219 163.333C128.368 160.669 132.196 160.83 133.089 163.59C138.337 179.823 149.951 217.092 149.252 226.928C148.521 237.215 123.442 299.224 113.676 330.46C112.708 333.557 108.188 333.093 107.876 329.863C104.749 297.492 101.393 223.239 127.219 163.333Z" fill="#9FABCE"/>
<path d="M353.788 66.418C333.315 65.904 286.969 69.9531 259.497 113.136V200.771C259.497 200.771 284.153 249.398 331.357 229.626C370.926 213.052 367.12 110.116 364.854 77.253C364.439 71.236 359.643 66.565 353.788 66.418Z" fill="#FF4858"/>
<path d="M294.892 243.813C288.196 241.125 279.667 237.416 273.128 233.606C270.152 231.872 266.485 234.289 266.924 237.705L278.631 367.141C278.984 371.044 284.666 371.098 285.093 367.203C288.718 334.159 294.934 285.035 302.256 258.639C303.946 252.546 300.76 246.168 294.892 243.813Z" fill="#9FABCE"/>
<path d="M314.435 253.04L289.147 391.933C286.918 404.178 288.225 416.805 292.915 428.333L314.457 481.28C316.807 487.056 325.277 486.068 326.227 479.905C332.908 436.57 345.675 335.83 335.16 253.554C334.316 246.949 327.574 242.818 321.289 245.018C317.728 246.264 315.111 249.327 314.435 253.04Z" fill="#9FABCE"/>
<path d="M343.665 238.417C342.4 239.946 341.796 241.912 341.987 243.887C343.68 261.376 351.901 348.988 351.103 392.893C350.542 423.73 361.646 454.567 369.93 473.149C372.504 478.922 381.002 477.857 382.079 471.629C386.965 443.395 395.315 391.643 394.683 371.103C393.973 348.039 367.216 270.899 356.431 240.663C354.488 235.215 347.354 233.961 343.665 238.417Z" fill="#9FABCE"/>
<path d="M382.899 163.333C381.75 160.669 377.922 160.83 377.029 163.59C371.781 179.823 360.167 217.092 360.866 226.928C361.597 237.215 386.676 299.224 396.442 330.46C397.41 333.557 401.93 333.093 402.242 329.863C405.369 297.492 408.725 223.239 382.899 163.333Z" fill="#9FABCE"/>
<path d="M172.562 46.9261C172.936 53.4311 178.165 58.5091 184.489 58.5091C198.904 58.5091 212.867 63.6931 223.97 73.1681L242.318 88.8251C245.623 91.6451 250.621 89.2231 250.621 84.8011V30.7471H171.632L172.562 46.9261Z" fill="#9FABCE"/>
<path d="M140.993 38.8201L142.907 52.3471C143.434 56.0711 146.771 58.7391 150.52 58.4341L161.617 57.5301C165.121 57.2441 168.453 54.4321 168.13 50.9311C167.508 44.1951 166.745 37.4131 165.897 30.7461H140.213C140.365 33.4441 140.614 36.1381 140.993 38.8201Z" fill="#9FABCE"/>
<path d="M259.497 84.802C259.497 89.224 264.495 91.646 267.8 88.826L286.148 73.169C297.25 63.695 311.214 58.51 325.629 58.51C331.953 58.51 337.181 53.432 337.556 46.927L338.486 30.748H259.497V84.802Z" fill="#9FABCE"/>
<path d="M341.989 50.932C341.666 54.433 344.998 57.245 348.502 57.531L359.599 58.435C363.348 58.74 366.685 56.072 367.212 52.348L369.126 38.821C369.505 36.138 369.754 33.445 369.907 30.748H344.222C343.374 37.414 342.611 44.195 341.989 50.932Z" fill="#9FABCE"/>
</svg>
